packages/components/src/components/icon/wallet/ic-wallet-paytrust-dark.svg

<svg width="40" height="25" viewBox="0 0 40 25" fill="none" xmlns="http://www.w3.org/2000/svg">
<path d="M12.7312 10.2V12.7C12.7249 12.8444 12.7461 12.9886 12.7937 13.125C12.8343 13.2415 12.8993 13.3481 12.9843 13.4375C13.0634 13.5174 13.1596 13.5783 13.2656 13.6156C13.3767 13.656 13.4942 13.6761 13.6125 13.675C13.7318 13.6749 13.8494 13.647 13.9562 13.5938C14.0621 13.5393 14.1574 13.4663 14.2375 13.3781C14.3182 13.286 14.3817 13.1802 14.425 13.0656C14.4708 12.9547 14.4942 12.8357 14.4937 12.7156V10.2156H15.6781V14.1469C15.6773 14.4528 15.6123 14.7551 15.4875 15.0344C15.3688 15.3084 15.1967 15.5559 14.9812 15.7625C14.7662 15.9704 14.5139 16.1358 14.2375 16.25C13.9489 16.3723 13.6383 16.434 13.325 16.4313L12.7218 16.425V15.2719H13.3781C13.4845 15.2716 13.5901 15.2536 13.6906 15.2188C13.8012 15.1835 13.9064 15.133 14.0031 15.0688C14.0934 15.004 14.1734 14.926 14.2406 14.8375C14.3094 14.7496 14.3662 14.6529 14.4093 14.55L14.0156 14.7094C13.8876 14.7618 13.7508 14.7894 13.6125 14.7906C13.3393 14.7941 13.068 14.7464 12.8125 14.65C12.5685 14.5545 12.3456 14.4122 12.1562 14.2313C11.9648 14.0447 11.8147 13.8201 11.7156 13.5719C11.6066 13.2945 11.5545 12.998 11.5625 12.7V10.2H12.7312ZM8.94683 10.0531C9.09216 10.0538 9.23691 10.0717 9.37808 10.1063C9.52013 10.1427 9.65829 10.1929 9.79058 10.2563C9.92477 10.3192 10.0534 10.3934 10.175 10.4781C10.2945 10.5621 10.4083 10.654 10.5156 10.7531L10.9593 10.2313H11.25V14.6281H10.975L10.5312 14.0219C10.4218 14.1156 10.3062 14.2063 10.1875 14.2906C10.0658 14.3744 9.9372 14.4475 9.80308 14.5094C9.6651 14.5712 9.52181 14.6203 9.37495 14.6563C9.23488 14.691 9.09114 14.7088 8.94683 14.7094C8.643 14.711 8.34135 14.658 8.0562 14.5531C7.49974 14.3484 7.05661 13.9166 6.83745 13.3656C6.71129 13.0531 6.64964 12.7182 6.6562 12.3813C6.65321 12.0598 6.71485 11.741 6.83745 11.4438C6.95022 11.1668 7.117 10.915 7.32808 10.7031C7.53628 10.4966 7.78389 10.334 8.0562 10.225C8.3387 10.1091 8.64148 10.0506 8.94683 10.0531ZM4.0437 8.71563C4.25486 8.71588 4.46504 8.74426 4.6687 8.8C4.87 8.85491 5.06329 8.9358 5.2437 9.04063C5.59707 9.24828 5.89342 9.54033 6.1062 9.89063C6.21272 10.0673 6.29472 10.2575 6.34995 10.4563C6.40766 10.6596 6.4371 10.8699 6.43745 11.0813C6.44073 11.3973 6.37682 11.7105 6.24995 12C6.12838 12.282 5.95328 12.5378 5.73433 12.7531C5.51287 12.9681 5.25321 13.1398 4.9687 13.2594C4.67174 13.3831 4.35291 13.4458 4.0312 13.4438H2.84058V14.6281H1.63745V8.71563H4.0437ZM24.1812 8.71563L21.7062 9.9H18.0562V14.6281H16.875V9.9H14.4937V8.71563H24.1812ZM8.95933 11.1938C8.80888 11.1922 8.65946 11.2187 8.5187 11.2719C8.38253 11.3218 8.25884 11.4007 8.1562 11.5031C8.0524 11.6101 7.97064 11.7365 7.91558 11.875C7.79884 12.2067 7.79884 12.5683 7.91558 12.9C7.96991 13.0408 8.05171 13.1693 8.1562 13.2781C8.25968 13.3795 8.38313 13.4583 8.5187 13.5094C8.65986 13.5611 8.80901 13.5875 8.95933 13.5875C9.11227 13.5883 9.26324 13.5529 9.39995 13.4844C9.53617 13.419 9.65908 13.3289 9.76245 13.2188C9.86412 13.1036 9.94454 12.9714 9.99995 12.8281C10.0614 12.687 10.0944 12.5351 10.0968 12.3813H10.1C10.0965 12.2271 10.0625 12.0753 9.99995 11.9344C9.94261 11.7978 9.86228 11.672 9.76245 11.5625C9.65921 11.4514 9.53631 11.3602 9.39995 11.2938C9.26248 11.2277 9.11186 11.1935 8.95933 11.1938ZM2.84058 9.9V12.2656H4.0437C4.20372 12.2668 4.36225 12.2349 4.50933 12.1719C4.65201 12.112 4.78235 12.0262 4.8937 11.9188C5.00272 11.8104 5.08974 11.682 5.14995 11.5406C5.27501 11.2471 5.27501 10.9154 5.14995 10.6219C5.08892 10.4819 5.00198 10.3546 4.8937 10.2469C4.78348 10.1396 4.65275 10.0556 4.50933 10C4.36225 9.93696 4.20372 9.90504 4.0437 9.90625L2.84058 9.9Z" fill="#F3BA0C"/>
<path d="M31.7656 8.4375V10.2219H33.7281C33.7281 10.2219 33.6218 11.0281 34.1312 11.3406H31.75V12.6625C31.7494 12.7762 31.7717 12.8889 31.8156 12.9938C31.9077 13.1984 32.0741 13.3604 32.2812 13.4469C32.3891 13.4921 32.5049 13.5155 32.6218 13.5156H33.4906V14.6219H32.6218C32.3527 14.6243 32.0859 14.5722 31.8375 14.4688C31.5988 14.3692 31.3814 14.2249 31.1968 14.0438C31.0134 13.8651 30.8659 13.653 30.7625 13.4187C30.6583 13.177 30.6051 12.9164 30.6062 12.6531V11.3313H27.7937C27.7192 11.3305 27.6477 11.3611 27.5968 11.4156C27.5425 11.4664 27.5128 11.5382 27.5156 11.6125C27.513 11.6886 27.5425 11.7623 27.5968 11.8156C27.6467 11.8715 27.7188 11.9024 27.7937 11.9H28.9593C29.1449 11.9001 29.3289 11.9329 29.5031 11.9969C29.6668 12.0588 29.8174 12.151 29.9468 12.2688C30.079 12.3839 30.1855 12.5255 30.2593 12.6844C30.3327 12.8518 30.3699 13.0328 30.3687 13.2156C30.3699 13.4035 30.3327 13.5896 30.2593 13.7625C30.184 13.9287 30.078 14.0793 29.9468 14.2062C29.8205 14.3381 29.6698 14.4442 29.5031 14.5187C29.331 14.5912 29.1461 14.6284 28.9593 14.6281H25.875L25.4937 14.1125C25.4001 14.1962 25.3009 14.2735 25.1968 14.3438C25.0918 14.4163 24.981 14.48 24.8656 14.5344C24.7501 14.5882 24.6297 14.6311 24.5062 14.6625C24.3847 14.6936 24.2598 14.7094 24.1343 14.7094C23.8651 14.7121 23.5978 14.6633 23.3468 14.5656C23.107 14.4717 22.8875 14.3328 22.7 14.1562C22.5117 13.972 22.3638 13.7507 22.2656 13.5062C22.156 13.2354 22.1018 12.9453 22.1062 12.6531V12.1375C22.1812 11.7875 23.2562 11.0125 23.2562 11.0125V12.6656C23.2545 12.8013 23.2789 12.9361 23.3281 13.0625C23.3696 13.1724 23.4334 13.2724 23.5156 13.3562C23.5944 13.4365 23.6891 13.4993 23.7937 13.5406C23.9026 13.5814 24.0181 13.6015 24.1343 13.6C24.2508 13.601 24.3657 13.5731 24.4687 13.5188C24.5734 13.4665 24.6677 13.3955 24.7468 13.3094C24.8271 13.2175 24.8897 13.1116 24.9312 12.9969C24.977 12.8881 25.0004 12.7712 25 12.6531V10.2125H26.1687V13.5312H28.9812C29.0558 13.532 29.1272 13.5014 29.1781 13.4469C29.2325 13.3961 29.2621 13.3243 29.2593 13.25C29.2679 13.186 29.2354 13.1235 29.1781 13.0938C29.1159 13.0673 29.0488 13.0545 28.9812 13.0563H27.8093C27.6215 13.0571 27.4355 13.0199 27.2625 12.9469C27.0955 12.8711 26.944 12.7652 26.8156 12.6344C26.6841 12.5065 26.5781 12.3549 26.5031 12.1875C26.4323 12.0066 26.4014 11.8126 26.4125 11.6188C26.4101 11.4308 26.4474 11.2445 26.5218 11.0719C26.6596 10.734 26.9277 10.4659 27.2656 10.3281C27.4382 10.2536 27.6245 10.2164 27.8125 10.2188H30.625V8.4375H31.7656ZM35.3093 8.5C35.4227 8.53865 35.5285 8.59682 35.6218 8.67188C35.703 8.74418 35.7698 8.83111 35.8187 8.92813C35.8687 9.02456 35.8934 9.13206 35.8906 9.24062C35.8904 9.29532 35.8841 9.34982 35.8718 9.40312C35.8595 9.4575 35.8428 9.5108 35.8218 9.5625C35.7991 9.61372 35.7719 9.66286 35.7406 9.70938C35.7103 9.75419 35.6746 9.79512 35.6343 9.83125C35.6967 9.86788 35.7545 9.91195 35.8062 9.9625C35.8579 10.0132 35.9021 10.0711 35.9375 10.1344C35.9743 10.1959 36.0027 10.2621 36.0218 10.3312C36.0353 10.4012 36.0396 10.4727 36.0343 10.5437C36.0357 10.6666 36.0067 10.7879 35.95 10.8969C35.8924 11.0051 35.8125 11.0999 35.7156 11.175C35.6129 11.2565 35.4965 11.3189 35.3718 11.3594C35.0985 11.4469 34.8046 11.4469 34.5312 11.3594C34.4065 11.3189 34.2901 11.2565 34.1875 11.175C34.0905 11.0999 34.0106 11.0051 33.9531 10.8969C33.8964 10.7879 33.8674 10.6666 33.8687 10.5437C33.8688 10.471 33.8783 10.3985 33.8968 10.3281C33.9171 10.2594 33.9455 10.1933 33.9812 10.1313C34.0179 10.0698 34.062 10.0132 34.1125 9.9625C34.1644 9.90999 34.2233 9.86478 34.2875 9.82812C34.2465 9.79274 34.2107 9.7517 34.1812 9.70625C34.1493 9.66014 34.1221 9.61093 34.1 9.55937C34.0772 9.50943 34.0605 9.45699 34.05 9.40312C34.0377 9.34982 34.0315 9.29532 34.0312 9.24062C34.0301 9.13224 34.0547 9.02513 34.1031 8.92813C34.1534 8.83196 34.22 8.74525 34.3 8.67188C34.3875 8.59837 34.4868 8.54025 34.5937 8.5C34.825 8.41673 35.0781 8.41673 35.3093 8.5ZM37.625 8.5C37.7319 8.54025 37.8312 8.59837 37.9187 8.67188C38.0008 8.74405 38.0686 8.83097 38.1187 8.92813C38.1671 9.02513 38.1917 9.13224 38.1906 9.24062C38.1904 9.29532 38.1841 9.34982 38.1718 9.40312C38.1595 9.4575 38.1428 9.5108 38.1218 9.5625C38.0991 9.61372 38.0719 9.66286 38.0406 9.70938C38.0103 9.75419 37.9746 9.79512 37.9343 9.83125C38.0654 9.90454 38.1735 10.0127 38.2468 10.1437C38.2827 10.2054 38.31 10.2716 38.3281 10.3406C38.34 10.4077 38.3422 10.4761 38.3343 10.5437C38.3357 10.6666 38.3067 10.7879 38.25 10.8969C38.1914 11.0045 38.1117 11.0991 38.0156 11.175C37.9129 11.2565 37.7965 11.3189 37.6718 11.3594C37.3985 11.4469 37.1046 11.4469 36.8312 11.3594C36.7059 11.3183 36.5885 11.2559 36.4843 11.175C36.3891 11.099 36.3104 11.0044 36.2531 10.8969C36.1964 10.7879 36.1674 10.6666 36.1687 10.5437C36.1688 10.471 36.1783 10.3985 36.1968 10.3281C36.2158 10.2589 36.2442 10.1927 36.2812 10.1313C36.3179 10.0698 36.362 10.0132 36.4125 9.9625C36.4644 9.90999 36.5233 9.86478 36.5875 9.82812C36.5465 9.79274 36.5107 9.7517 36.4812 9.70625C36.4481 9.66086 36.4208 9.61152 36.4 9.55937C36.3762 9.50954 36.3584 9.4571 36.3468 9.40312C36.3424 9.34905 36.3424 9.2947 36.3468 9.24062C36.3441 9.13206 36.3688 9.02456 36.4187 8.92813C36.4666 8.83043 36.5335 8.74331 36.6156 8.67188C36.7031 8.59837 36.8024 8.54025 36.9093 8.5C37.1406 8.41673 37.3937 8.41673 37.625 8.5ZM34.7437 10.1125C34.6829 10.136 34.626 10.1687 34.575 10.2094C34.5282 10.2493 34.49 10.2982 34.4625 10.3531C34.4082 10.4635 34.4082 10.5928 34.4625 10.7031C34.4911 10.7547 34.5292 10.8003 34.575 10.8375C34.6262 10.8762 34.6831 10.9068 34.7437 10.9281C34.8791 10.9698 35.0239 10.9698 35.1593 10.9281C35.2205 10.9081 35.2776 10.8775 35.3281 10.8375C35.3756 10.8013 35.415 10.7555 35.4437 10.7031C35.47 10.6485 35.4838 10.5887 35.4843 10.5281C35.4838 10.4675 35.47 10.4078 35.4437 10.3531C35.4161 10.2974 35.3766 10.2483 35.3281 10.2094C35.278 10.1674 35.2209 10.1346 35.1593 10.1125C35.0246 10.0668 34.8785 10.0668 34.7437 10.1125ZM37.0437 10.1125C36.9829 10.136 36.926 10.1687 36.875 10.2094C36.8282 10.2493 36.79 10.2982 36.7625 10.3531C36.7041 10.4625 36.7041 10.5938 36.7625 10.7031C36.7911 10.7547 36.8292 10.8003 36.875 10.8375C36.9262 10.8762 36.9831 10.9068 37.0437 10.9281C37.1791 10.9698 37.3239 10.9698 37.4593 10.9281C37.5202 10.9075 37.5772 10.8768 37.6281 10.8375C37.6747 10.8011 37.713 10.7554 37.7406 10.7031C37.7693 10.6493 37.7843 10.5892 37.7843 10.5281C37.7843 10.4671 37.7693 10.407 37.7406 10.3531C37.7141 10.2975 37.6757 10.2484 37.6281 10.2094C37.5775 10.1681 37.5205 10.1353 37.4593 10.1125C37.3246 10.0668 37.1785 10.0668 37.0437 10.1125ZM37.2562 8.96875C37.2049 8.96841 37.154 8.97796 37.1062 8.99687C37.0174 9.02499 36.944 9.08823 36.9031 9.17188C36.8848 9.21211 36.8752 9.25578 36.875 9.3C36.8742 9.34432 36.8839 9.38819 36.9031 9.42813C36.923 9.46758 36.9507 9.50264 36.9843 9.53125C37.0205 9.56137 37.0618 9.58467 37.1062 9.6C37.1545 9.61639 37.2052 9.62483 37.2562 9.625C37.3052 9.62483 37.3538 9.61638 37.4 9.6C37.4444 9.58467 37.4857 9.56137 37.5218 9.53125C37.5564 9.50352 37.5842 9.46825 37.6031 9.42813C37.6233 9.38842 37.634 9.34455 37.6343 9.3C37.6332 9.25555 37.6225 9.21187 37.6031 9.17188C37.5835 9.1313 37.5559 9.09515 37.5218 9.06563C37.4857 9.0355 37.4444 9.01221 37.4 8.99687C37.3544 8.97798 37.3055 8.96842 37.2562 8.96875ZM34.9562 8.96875C34.9049 8.96841 34.854 8.97796 34.8062 8.99687C34.7626 9.01057 34.7223 9.03288 34.6875 9.0625C34.6534 9.09202 34.6258 9.12818 34.6062 9.16875C34.5853 9.2082 34.5746 9.25223 34.575 9.29688C34.5737 9.34161 34.5845 9.38586 34.6062 9.425C34.6251 9.46512 34.6529 9.5004 34.6875 9.52813C34.722 9.55886 34.7624 9.58225 34.8062 9.59687C34.9071 9.63393 35.0178 9.63393 35.1187 9.59687C35.1619 9.58086 35.2021 9.55761 35.2375 9.52813C35.2721 9.5004 35.2999 9.46512 35.3187 9.425C35.3345 9.38535 35.3399 9.34232 35.3343 9.3C35.3347 9.25536 35.324 9.21132 35.3031 9.17188C35.2835 9.1313 35.2559 9.09515 35.2218 9.06563C35.1864 9.03614 35.1463 9.01289 35.1031 8.99687C35.0564 8.97828 35.0065 8.96873 34.9562 8.96875Z" fill="#F3BA0C"/>
<path d="M18.2 10.625C18.4844 10.9375 19.8219 12.5687 20.2469 14.5281C20.2469 14.5594 20.3 14.5656 20.3094 14.5281C20.575 13.8156 22.2531 9.79999 26.6844 8.96249C26.7219 8.96249 26.725 8.89999 26.6844 8.89686C25.8562 8.81874 22.8 8.77499 20.2781 11.8562C20.2531 11.8875 20.2187 11.8875 20.2 11.8562C19.8076 11.1158 19.0636 10.6276 18.2281 10.5625C18.2133 10.5624 18.1998 10.5711 18.1937 10.5846C18.1877 10.5981 18.1901 10.6139 18.2 10.625Z" fill="white"/>
</svg>

<svg width="40" height="25" fill="none" xmlns="http://www.w3.org/2000/svg"><path d="M12.731 10.2v2.5c-.006.144.015.289.063.425.04.117.105.223.19.313.08.08.176.14.282.178.11.04.228.06.347.059.119 0 .236-.028.343-.081a.995.995 0 00.282-.216c.08-.092.144-.198.187-.312.046-.111.07-.23.069-.35v-2.5h1.184v3.93c0 .307-.066.61-.19.888-.12.274-.291.522-.507.728a2.374 2.374 0 01-1.656.67l-.603-.007v-1.153h.656a.963.963 0 00.313-.053c.11-.035.215-.086.312-.15a1.25 1.25 0 00.406-.519l-.393.16c-.128.052-.265.08-.403.08a2.187 2.187 0 01-.8-.14 1.91 1.91 0 01-1.097-1.078 2.221 2.221 0 01-.154-.872v-2.5h1.17zm-3.784-.147c.145 0 .29.019.431.053.142.037.28.087.413.15.134.063.262.137.384.222.12.084.233.176.34.275l.444-.522h.291v4.397h-.275l-.444-.606c-.11.094-.225.184-.344.269-.121.083-.25.156-.384.218-.138.062-.281.111-.428.147-.14.035-.284.053-.428.053a2.541 2.541 0 01-.89-.156c-.557-.205-1-.636-1.22-1.187a2.5 2.5 0 01-.18-.985 2.4 2.4 0 01.18-.937 2.19 2.19 0 011.219-1.219c.283-.116.585-.174.89-.172zM4.044 8.716a2.378 2.378 0 011.2.325c.353.207.65.5.862.85a2.303 2.303 0 01.331 1.19c.004.316-.06.63-.187.919a2.375 2.375 0 01-1.281 1.26 2.4 2.4 0 01-.938.184h-1.19v1.184H1.637V8.716h2.407zm20.137 0L21.706 9.9h-3.65v4.728h-1.181V9.9h-2.381V8.716h9.687zM8.96 11.194a1.21 1.21 0 00-.44.078 1 1 0 00-.363.231 1.138 1.138 0 00-.24.372 1.544 1.544 0 000 1.025c.054.14.136.27.24.378.104.101.227.18.363.231.14.052.29.079.44.079a.972.972 0 00.441-.104c.136-.065.26-.155.362-.265.102-.115.183-.248.238-.39.061-.142.094-.294.097-.448h.003a1.297 1.297 0 00-.338-.819 1.23 1.23 0 00-.362-.268 1.012 1.012 0 00-.44-.1zM2.841 9.9v2.366h1.203c.16 0 .318-.031.465-.094.143-.06.273-.146.385-.253a1.172 1.172 0 000-1.672A1.144 1.144 0 004.509 10a1.16 1.16 0 00-.465-.094L2.84 9.9zM31.766 8.438v1.784h1.962s-.106.806.403 1.119H31.75v1.322c0 .113.022.226.066.33a.884.884 0 00.806.523h.869v1.106h-.87a1.995 1.995 0 01-1.424-.578 1.914 1.914 0 01-.59-1.39V11.33h-2.813a.266.266 0 00-.197.085.256.256 0 00-.081.197.272.272 0 00.08.203c.05.055.123.086.198.084h1.165c.186 0 .37.033.544.097.164.062.314.154.444.272.132.115.239.256.312.415a1.377 1.377 0 010 1.078 1.45 1.45 0 01-.312.444 1.412 1.412 0 01-.444.313c-.172.072-.357.11-.544.11h-3.084l-.381-.516a2.777 2.777 0 01-.628.421 2.045 2.045 0 01-.36.128 1.5 1.5 0 01-.372.047 2.113 2.113 0 01-.787-.143 2.014 2.014 0 01-.647-.41 1.9 1.9 0 01-.434-.65c-.11-.27-.164-.56-.16-.853v-.516c.075-.35 1.15-1.125 1.15-1.125v1.654c-.002.135.023.27.072.396.042.11.105.21.188.294.078.08.173.143.278.185.109.04.224.06.34.059a.704.704 0 00.335-.081.96.96 0 00.278-.21.984.984 0 00.184-.312.878.878 0 00.069-.344v-2.44h1.169v3.318h2.812c.075.001.146-.03.197-.084a.256.256 0 00.081-.197.153.153 0 00-.08-.156.47.47 0 00-.198-.038H27.81c-.188.001-.373-.036-.547-.11a1.488 1.488 0 01-.446-.312 1.45 1.45 0 01-.313-.447 1.349 1.349 0 01-.09-.568 1.338 1.338 0 01.109-.547c.138-.338.406-.606.744-.744.172-.074.359-.112.547-.11h2.812v-1.78h1.14zm3.543.062c.114.039.22.097.313.172.081.072.148.16.197.256.05.097.074.204.072.313 0 .054-.007.109-.02.162a1.023 1.023 0 01-.05.16.96.96 0 01-.08.146.66.66 0 01-.107.122c.063.037.12.08.172.132a.76.76 0 01.132.171.797.797 0 01.084.197c.013.07.018.142.012.213a.747.747 0 01-.084.353.868.868 0 01-.234.278 1.1 1.1 0 01-.344.184 1.379 1.379 0 01-.84 0 1.097 1.097 0 01-.344-.184.865.865 0 01-.235-.278.748.748 0 01-.084-.353c0-.073.01-.146.028-.216a.873.873 0 01.39-.5.573.573 0 01-.106-.122.84.84 0 01-.15-.465.684.684 0 01.072-.313.937.937 0 01.197-.256 1.01 1.01 0 011.01-.172zm2.316 0a.875.875 0 01.494.428.684.684 0 01.053.475 1.023 1.023 0 01-.05.16.96.96 0 01-.081.146.66.66 0 01-.107.122c.131.074.24.182.313.313a.79.79 0 01.081.197.699.699 0 01.006.203.747.747 0 01-.084.353.907.907 0 01-.234.278 1.1 1.1 0 01-.344.184 1.379 1.379 0 01-.84 0 1.15 1.15 0 01-.348-.184.894.894 0 01-.23-.278.748.748 0 01-.085-.353.783.783 0 01.112-.412.873.873 0 01.306-.304.573.573 0 01-.106-.122.672.672 0 01-.081-.147.707.707 0 01-.053-.156 1.002 1.002 0 010-.162.645.645 0 01.072-.313.815.815 0 01.197-.256 1.01 1.01 0 011.009-.172zm-2.881 1.613a.641.641 0 00-.169.096.459.459 0 00-.113.144.396.396 0 000 .35.46.46 0 00.113.135c.051.038.108.069.169.09.135.042.28.042.415 0a.544.544 0 00.17-.09.427.427 0 00.115-.135.411.411 0 00.04-.175.411.411 0 00-.156-.319.554.554 0 00-.169-.096.647.647 0 00-.415 0zm2.3 0a.641.641 0 00-.169.096.459.459 0 00-.112.144.372.372 0 000 .35.46.46 0 00.112.135c.051.038.108.069.169.09.135.042.28.042.415 0a.58.58 0 00.17-.09.418.418 0 00.112-.135.372.372 0 000-.35.419.419 0 00-.113-.144.596.596 0 00-.169-.096.647.647 0 00-.415 0zm.212-1.144a.4.4 0 00-.15.028.34.34 0 00-.203.175.313.313 0 000 .256c.02.04.048.075.081.103a.39.39 0 00.122.069.435.435 0 00.416-.069.291.291 0 00.081-.103c.02-.04.031-.083.031-.128a.33.33 0 00-.113-.234.388.388 0 00-.121-.07.37.37 0 00-.144-.027zm-2.3 0a.4.4 0 00-.15.028.33.33 0 00-.231.3.25.25 0 00.031.128c.02.04.047.075.081.103a.34.34 0 00.12.069c.1.037.21.037.312 0a.406.406 0 00.118-.069.29.29 0 00.082-.103.25.25 0 00.015-.125.33.33 0 00-.112-.234.406.406 0 00-.119-.07.397.397 0 00-.147-.027z" fill="#F3BA0C"/><path d="M18.2 10.625c.284.313 1.622 1.944 2.047 3.903 0 .031.053.038.062 0 .266-.712 1.944-4.728 6.375-5.566.038 0 .041-.062 0-.065-.828-.078-3.884-.122-6.406 2.96-.025.03-.06.03-.078 0a2.447 2.447 0 00-1.972-1.294.038.038 0 00-.028.062z" fill="#fff"/></svg>
